boxicons/svg/regular/bx-check-double.svg

<svg xmlns="http://www.w3.org/2000/svg" width="24" height="24" viewBox="0 0 24 24"><path d="m2.394 13.742 4.743 3.62 7.616-8.704-1.506-1.316-6.384 7.296-3.257-2.486zm19.359-5.084-1.506-1.316-6.369 7.279-.753-.602-1.25 1.562 2.247 1.798z"/></svg>

<svg xmlns="http://www.w3.org/2000/svg" width="24" height="24" viewBox="0 0 24 24"><path d="M2.394 13.742L7.137 17.362 14.753 8.658 13.247 7.342 6.863 14.638 3.606 12.152zM21.753 8.658L20.247 7.342 13.878 14.621 13.125 14.019 11.875 15.581 14.122 17.379z"/></svg>
